X: 1
T: Miss Shepherd
C: J.S.Skinner
N: SV 27
N: H&C (in G) p.67
N: Hunter 192
N: BSFC IV-18
Z: 1999 John Chambers <jc:trillian.mit.edu>
M: C|
L: 1/8
K: ADor
{^G}A | "Am"A,B,CD E2DC | "G"B,GFG DB,G,B, | "Am"A,B,CD E^GAc | "E7"BA^GB "Am"cAA :|
^g- | "Am"a2ed cBAF- | "G"G2DC B,A,G,^g- | "Am"a2ed cBAc | "E7"BA^GB "Am"cAA |]
^g- | | "Am"~a2ed cBAF | "G"~G2DC B,A,G,B, | "Am"A,B,CD E^GAc | "E7"BA^GB "Am"cAA |]
